X:1
T:Ed Yother's Jig #3
C:Ed Yother 2/2017
C:http://edyother.com
M:6/8
L:1/8
R:Jig
K:D
|: FAd ede | fed edB | GBc dcB | dcB A3 |
GBc dcB | FAd efg | Bcd ecA |1 dcB AGE :|2 d6 |
|: cde efg | Bcd ecA | ecA Bcd | ecA Bcd |
cde efg | Bcd ecA |1 ecA Bcd | ecA G3 :|2  Bcd ecA | dcB AGE ||

%%newpage
%%begintext
Polkas
%%endtext
%%scale .75


